svg/food/bottle_glass_line.svg

<svg xmlns="http://www.w3.org/2000/svg" width="24" height="24" viewBox="0 0 24 24"><g fill="none" fill-rule="evenodd"><path d="M24,0 L24,24 L0,24 L0,0 L24,0 Z M12.5935,23.2578 L12.5819,23.2595 L12.5109,23.295 L12.4919,23.2987 L12.4767,23.295 L12.4057,23.2595 C12.3958,23.2564 12.387,23.259 12.3821,23.2649 L12.378,23.2758 L12.3609,23.7031 L12.3659,23.7235 L12.3769,23.7357 L12.4805,23.8097 L12.4953,23.8136 L12.5071,23.8097 L12.6107,23.7357 L12.6233,23.7197 L12.6267,23.7031 L12.6096,23.2758 C12.6076,23.2657 12.601,23.2593 12.5935,23.2578 Z M12.8584,23.1453 L12.8445,23.1473 L12.6598,23.2397 L12.6499,23.2499 L12.6472,23.2611 L12.6651,23.6906 L12.6699,23.7034 L12.6784,23.7105 L12.8793,23.8032 C12.8914,23.8069 12.9022,23.803 12.9078,23.7952 L12.9118,23.7812 L12.8777,23.1665 C12.8753,23.1546 12.8674,23.147 12.8584,23.1453 Z M12.143,23.1473 C12.1332,23.1424 12.1222,23.1453 12.1156,23.1526 L12.1099,23.1665 L12.0758,23.7812 C12.0751,23.7927 12.0828,23.8019 12.0926,23.8046 L12.1083,23.8032 L12.3092,23.7105 L12.3186,23.7024 L12.3225,23.6906 L12.3404,23.2611 L12.3372,23.2485 L12.3278,23.2397 L12.143,23.1473 Z"/><path fill="#09244B" d="M7,2 C6.47991,2 6.04665,2.39866 6.00345,2.91695 L5.57494,8.05908 C5.55213,8.33289 5.41765,8.58526 5.20309,8.7569 L3.75061,9.91889 C3.27618,10.2984 3,10.8731 3,11.4806 L3,20 C3,21.1046 3.89543,22 5,22 L11,22 C12.1046,22 13,21.1046 13,20 L13,11.4806 C13,10.8731 12.7238,10.2984 12.2494,9.91889 L10.7969,8.7569 C10.5824,8.58526 10.4479,8.33289 10.4251,8.05908 L9.99655,2.91695 C9.95335,2.39866 9.52009,2 9,2 L7,2 Z M7.56804,8.22517 L7.92013,4 L8.07987,4 L8.43196,8.22517 C8.50042,9.04662 8.90385,9.80371 9.54752,10.3186 L11,11.4806 L11,20 L5,20 L5,11.4806 L6.45248,10.3186 C7.09615,9.80371 7.49958,9.04661 7.56804,8.22517 Z M15.4947,8 C14.7132,8 14.0506,8.57464 13.9401,9.34828 L13.4343,12.8887 C13.1736,14.714 14.3235,16.3775 16,16.8599 L16,20 L15.5,20 C14.9477,20 14.5,20.4477 14.5,21 C14.5,21.5523 14.9477,22 15.5,22 L18.5,22 C19.0523,22 19.5,21.5523 19.5,21 C19.5,20.4477 19.0523,20 18.5,20 L18,20 L18,16.86 C19.6765,16.3776 20.8265,14.714 20.5657,12.8887 L20.0599,9.34828 C19.9494,8.57464 19.2868,8 18.5053,8 L15.4947,8 Z M15.4142,13.1716 L15.8673,10 L18.1327,10 L18.5858,13.1716 C18.7237,14.1366 17.9749,15 17,15 C16.0252,15 15.2764,14.1366 15.4142,13.1716 Z"/></g></svg>

<svg xmlns="http://www.w3.org/2000/svg" width="24" height="24"><g fill="none" fill-rule="evenodd"><path d="M24 0v24H0V0zM12.594 23.258l-.012.002-.071.035-.02.004-.014-.004-.071-.036c-.01-.003-.019 0-.024.006l-.004.01-.017.428.005.02.01.013.104.074.015.004.012-.004.104-.074.012-.016.004-.017-.017-.427c-.002-.01-.009-.017-.016-.018m.264-.113-.014.002-.184.093-.01.01-.003.011.018.43.005.012.008.008.201.092c.012.004.023 0 .029-.008l.004-.014-.034-.614c-.003-.012-.01-.02-.02-.022m-.715.002a.023.023 0 0 0-.027.006l-.006.014-.034.614c0 .012.007.02.017.024l.015-.002.201-.093.01-.008.003-.011.018-.43-.003-.012-.01-.01z"/><path fill="#09244B" d="M7 2a1 1 0 0 0-.997.917l-.428 5.142a1 1 0 0 1-.372.698L3.751 9.919A2 2 0 0 0 3 11.48V20a2 2 0 0 0 2 2h6a2 2 0 0 0 2-2v-8.52a2 2 0 0 0-.75-1.561l-1.453-1.162a1 1 0 0 1-.372-.698l-.428-5.142A1 1 0 0 0 9 2zm.568 6.225L7.92 4h.16l.352 4.225a3 3 0 0 0 1.116 2.094L11 11.48V20H5v-8.52l1.452-1.161a3 3 0 0 0 1.116-2.094M15.495 8a1.57 1.57 0 0 0-1.555 1.348l-.506 3.54A3.604 3.604 0 0 0 16 16.86V20h-.5a1 1 0 1 0 0 2h3a1 1 0 1 0 0-2H18v-3.14a3.604 3.604 0 0 0 2.566-3.971l-.506-3.54A1.57 1.57 0 0 0 18.505 8zm-.08 5.172L15.866 10h2.266l.453 3.172a1.602 1.602 0 1 1-3.172 0"/></g></svg>
